!!! Melodie: eigene
!!! Typ: Lied
**kern	**silbe	**silbe	**silbe	**silbe	**silbe
*clefG2	*lang:DE	*lang:DE	*lang:DE	*lang:DE	*lang:DE
*k[b-,e-,a-]	*	*	*	*	*
*M6/4	*	*	*	*	*
4g	Macht	Er	O	Macht	Komm,
=	=	=	=	=	=
2b-	hoch	ist	Wohl	hoch	O
4a-	die	ge#	dem	die	mein
2g	Tür,	#recht,	Land,	Tür,	Hei#
4f	die	ein	O	die	#land
=	=	=	=	=	=
(4e-	Tor’	Hel#	Wohl	Tor’	Je#
4f)	|	|	|	|	|
4g	macht	#fer	der	macht	#su
2f	weit!	wert,	Stadt,	weit,	Christ,
4b-	es	Sanft#	So	Eur'	mein
=	=	=	=	=	=
2a-	kommt	#mü#	die#	Herz	Her#
4a-	der	#tig#	#sen	zum	#zens
2g	Herr	#keit	Kö#	Tem#	Tür
4g	der	ist	#nig	#pel	dir
=	=	=	=	=	=
(4f	Herr#	sein	bei	zu#	of#
4e-)	|	|	|	|	|
4f	#lich#	Ge#	sich	#be#	#fen
2e-	#keit,	#fährt,	hat;	#reit;	ist:
4g	ein	sein	Wohl	die	Ach,
=	=	=	=	=	=
2f	Kö#	Kö#	al#	Pal#	zieh
4f	#nig	#nigs#	#len	#men	mit
(4g	al#	#kron'	Her#	der	dei#
4a)	|	|	|	|	|
4b-	#ler	ist	#zen	Gott#	#ner
=	=	=	=	=	=
(4b-	Kö#	Hei#	ins#	#se#	Gna#
4cc)	|	|	|	|	|
4a	#nig#	#lig#	#ge#	#lig#	#de
2b-	#reich,	#keit,	#mein,	#keit,	ein,
4f	ein	sein	da	steckt	dein’
=	=	=	=	=	=
2g	Hei#	Szep#	die#	hin	Freund#
4f	#land	#ter	#ser	mit	#lich#
(4g	al#	ist	Kö#	An#	#keit
4a)	|	|	|	|	|
4b-	#ler	Barm#	#nig	#dacht,	auch
=	=	=	=	=	=
(4b-	Welt	#her#	zie#	Lust	uns
4cc)	|	|	|	|	|
4a	zu#	#zig#	#het	und	er#
2b-	#gleich,	#keit;	ein!	Freud’:	#schein.
4b-	Der	all	Er	so	dein
=	=	=	=	=	=
2cc	Heil	uns#	ist	kommt	heil'#
4b-	und	#'re	die	der	#ger
2cc	Le#	Not	rech#	Kö#	Geist
4b-	#ben	zu	#te	#nig	uns
=	=	=	=	=	=
(4b-	mit	End’	Freu#	auch	führ'
4cc)	|	|	|	|	|
4a-	sich	er	#den#	zu	und
2g	bringt;	bringt,	#sonn',	euch,	leit'
4b-	Der#	der#	bringt	Ja	den
=	=	=	=	=	=
2cc	#hal#	#hal#	mit	Heil	Weg
4b-	#ben	#ben	sich	und	zur
2cc	jauchzt,	jauchzt,	lau#	Le#	ew'#
4b-	mit	mit	#ter	#ben	#gen
=	=	=	=	=	=
(4cc	Freu#	Freu#	Freud’	mit	See#
4b-)	|	|	|	|	|
4a-	#den	#den	und	zu#	#lig#
2g	singt:	singt:	Wonn’.	#gleich.	#keit.
4b-	ge#	ge#	Ge#	ge#	dem
=	=	=	=	=	=
2e-	#lo#	#lo#	#lo#	#lo#	Na#
4e-	#bet	#bet	#bet	#bet	#men
2a-	sei	sei	sei	sei	dein,
4g	mein	mein	mein	mein	O
=	=	=	=	=	=
(2.f	Gott,	Gott,	Gott,	Gott,	Herr,
2f)	|	|	|	|	|
4b-	mein	mein	mein	voll	sei
=	=	=	=	=	=
2a-	Schöp#	Hei#	Trö#	Rat,	e#
4g	#fer	#land,	#ster	voll	#wig
(4f	reich	groß	früh	Tat,	Preis'
4e-)	|	|	|	|	|
4f	von	von	und	voll	und
=	=	=	=	=	=
(2.e-	Rat!	Tat!	spät.	Gnad’.	Ehr’!
2e-)	|	|	|	|	|
==	==	==	==	==	==
*-	*-	*-	*-	*-	*-
